6/img/icons/burger.svg

<svg width="74" height="69" viewBox="0 0 74 69" fill="none" xmlns="http://www.w3.org/2000/svg">
<path d="M69.0544 46H4.26203C1.96171 46 0.140625 48 0.140625 50.3V53.8C0.140625 56.1 1.96171 58 4.26203 58H5.2205V59C5.2205 64.5 9.5336 68.9 14.7093 68.9H58.6071C63.8786 68.9 68.0959 64.4 68.0959 59V58H69.0544C71.2588 58 73.1758 56.1 73.1758 53.7V50.2C73.1758 48 71.3547 46 69.0544 46ZM65.3163 59C65.3163 62.8 62.3451 65.9 58.7029 65.9H14.6135C10.9713 65.9 8.00005 62.8 8.00005 59V58H65.3163V59ZM70.3004 53.7C70.3004 54.4 69.7253 55 69.0544 55H4.26203C3.5911 55 3.01602 54.4 3.01602 53.7V50.2C3.01602 49.6 3.5911 49 4.26203 49H69.1502C69.8211 49 70.3962 49.6 70.3962 50.3V53.7H70.3004Z" fill="#81B3D2"/>
<path d="M15.6678 37.9L20.8436 41.9L26.1151 37.9L31.3867 41.9L36.6583 37.9L41.834 41.9L47.1055 37.9L52.3771 41.9L57.6487 37.9L62.9202 41.9L68.9586 37.2L67.3292 34.8L62.9202 38.1L57.6487 34.1L52.3771 38.1L47.1055 34.1L41.834 38.1L36.6583 34.1L31.3867 38.1L26.1151 34.1L20.8436 38.1L15.6678 34.1L10.3963 38.1L5.98732 34.8L4.26208 37.2L10.3963 41.9L15.6678 37.9Z" fill="#81B3D2"/>
<path d="M68.0958 31.1C68.0958 30.5 68.1916 28.5 68.0958 28.1C67.4248 12.5 53.6229 0 36.6581 0C19.6932 0 5.79544 12.5 5.12451 28.1C5.12451 28.5 5.12451 30.5 5.12451 31.1H68.0958ZM36.6581 3C51.9935 3 64.6453 14.2 65.2204 28.1H7.99991C8.67084 14.2 21.3226 3 36.6581 3Z" fill="#81B3D2"/>
<path d="M36.6581 17C37.7168 17 38.5751 16.1046 38.5751 15C38.5751 13.8954 37.7168 13 36.6581 13C35.5995 13 34.7412 13.8954 34.7412 15C34.7412 16.1046 35.5995 17 36.6581 17Z" fill="#81B3D2"/>
<path d="M28.9904 12.1C30.0491 12.1 30.9074 11.2045 30.9074 10.1C30.9074 8.99541 30.0491 8.09998 28.9904 8.09998C27.9317 8.09998 27.0735 8.99541 27.0735 10.1C27.0735 11.2045 27.9317 12.1 28.9904 12.1Z" fill="#81B3D2"/>
<path d="M44.3259 12.1C45.3846 12.1 46.2428 11.2045 46.2428 10.1C46.2428 8.99541 45.3846 8.09998 44.3259 8.09998C43.2672 8.09998 42.4089 8.99541 42.4089 10.1C42.4089 11.2045 43.2672 12.1 44.3259 12.1Z" fill="#81B3D2"/>
</svg>

<svg width="74" height="69" fill="none" xmlns="http://www.w3.org/2000/svg"><path d="M69.054 46H4.262c-2.3 0-4.121 2-4.121 4.3v3.5c0 2.3 1.82 4.2 4.121 4.2h.959v1c0 5.5 4.313 9.9 9.488 9.9h43.898c5.272 0 9.489-4.5 9.489-9.9v-1h.958c2.205 0 4.122-1.9 4.122-4.3v-3.5c0-2.2-1.821-4.2-4.122-4.2Zm-3.738 13c0 3.8-2.97 6.9-6.613 6.9h-44.09C10.972 65.9 8 62.8 8 59v-1h57.316v1Zm4.984-5.3c0 .7-.575 1.3-1.246 1.3H4.262c-.67 0-1.246-.6-1.246-1.3v-3.5c0-.6.575-1.2 1.246-1.2H69.15c.671 0 1.246.6 1.246 1.3v3.4H70.3ZM15.668 37.9l5.176 4 5.271-4 5.272 4 5.271-4 5.176 4 5.271-4 5.272 4 5.272-4 5.271 4 6.039-4.7-1.63-2.4-4.409 3.3-5.271-4-5.272 4-5.272-4-5.271 4-5.176-4-5.271 4-5.272-4-5.271 4-5.176-4-5.272 4-4.409-3.3-1.725 2.4 6.134 4.7 5.272-4ZM68.096 31.1c0-.6.096-2.6 0-3C67.425 12.5 53.623 0 36.658 0 19.693 0 5.795 12.5 5.125 28.1v3h62.97ZM36.658 3C51.993 3 64.645 14.2 65.22 28.1H8C8.67 14.2 21.323 3 36.658 3Z" fill="#81B3D2"/><path d="M36.658 17c1.059 0 1.917-.895 1.917-2s-.858-2-1.917-2c-1.059 0-1.917.895-1.917 2s.858 2 1.917 2ZM28.99 12.1c1.06 0 1.917-.896 1.917-2 0-1.105-.858-2-1.917-2-1.058 0-1.916.895-1.916 2 0 1.104.858 2 1.916 2ZM44.326 12.1c1.059 0 1.917-.896 1.917-2 0-1.105-.858-2-1.917-2-1.059 0-1.917.895-1.917 2 0 1.104.858 2 1.917 2Z" fill="#81B3D2"/></svg>
